src/pos-icons/battery-heart-outline.svg

<svg height="24" viewBox="0 0 24 24" width="24" xmlns="http://www.w3.org/2000/svg"><path d="m19 16.2-.6-.5c-2-1.9-3.4-3.2-3.4-4.7 0-1.2 1-2.2 2.2-2.2.7 0 1.3.3 1.8.8.5-.5 1.1-.8 1.8-.8 1.2 0 2.2 1 2.2 2.2 0 1.5-1.4 2.7-3.4 4.6zm-6.3-12.2h-1.7v-2h-6v2h-1.7c-.7 0-1.3.6-1.3 1.3v15.3c0 .8.6 1.4 1.3 1.4h9.3c.7 0 1.3-.6 1.3-1.3v-15.4c.1-.7-.5-1.3-1.2-1.3m-.7 16h-8v-14h8z"/></svg>

<?xml version="1.0" encoding="UTF-8"?><!DOCTYPE svg PUBLIC "-//W3C//DTD SVG 1.1//EN" "http://www.w3.org/Graphics/SVG/1.1/DTD/svg11.dtd"><svg xmlns="http://www.w3.org/2000/svg" xmlns:xlink="http://www.w3.org/1999/xlink" version="1.1" id="mdi-battery-heart-outline" width="24" height="24" viewBox="0 0 24 24"><path d="M19 16.2L18.4 15.7C16.4 13.8 15 12.5 15 11C15 9.8 16 8.8 17.2 8.8C17.9 8.8 18.5 9.1 19 9.6C19.5 9.1 20.1 8.8 20.8 8.8C22 8.8 23 9.8 23 11C23 12.5 21.6 13.7 19.6 15.6L19 16.2M12.7 4H11V2H5V4H3.3C2.6 4 2 4.6 2 5.3V20.6C2 21.4 2.6 22 3.3 22H12.6C13.3 22 13.9 21.4 13.9 20.7V5.3C14 4.6 13.4 4 12.7 4M12 20H4V6H12V20Z" /></svg>
